X: 5463
T: Bunch Of Roses, The
R: jig
M: 6/8
K: Gdorian
B2B Bcd|cBA ABc|B2G GAB|A^FD D2 A|B2B Bcd|
cBA ABc|BAG AG^F|1 DGG G2 A:|2 DGG G2 e
|:f2d def|g2d cBA|G2g g^fg|a^fd d2e|=fca gfe|
fed cBA|BAG AGF|1 DGG G2 e:|2 DGG G2||

